X:163
T:Beautiful Savior
%%stretchlast false
M:4/4
L:1/4
K:C clef=C1
"^I"[CEGc]2 "^vi"[A,EAc] [A,EAc] | "^ii¹"[F,FAd] "^V"[G,DGB] "^I"[CEGc]2 | [CGce] "^Imaj7³"[B,Gce] "^vi"[A,Ace] "^VI7³"[G,A^ce] | "^ii¹"[F,Adf] "^V"[G,GBd] "^I"[CGce]2 | [CEcg]2 "^IV"[F,Acc'] "^IV¹"[A,Fca] | "^I"[CEcg]2 "^ii"[CGdf] "^I"[CGce] | "^ii7"[DFcf] [DFBf] "^I"[CGce]2 | "^V"[G,GBd]2 [GBd] "^V7³"[FGBd] | "^I¹"[EGcg]2 "^IV"[Fca] "^I¹"[EGcg] | "^VI"[A,A^cg] "^V/ii"[A,A^ce] "^ii"[DAdf]2 | "^V7"[G,Bdf]2 [G,Geg] "^ii"[G,Adf] | "^V7"[G,Bdf] "^V"[G,GBd] "^I"[CGce]2 | [CGce]2 "^Imaj7³"[B,Gce] "^vi"[A,Ace] | "^I¹"[E,Gcg] "^vi7²"[E,Acg] "^V/IV¹"[E,^Acg] "^IV"[F,Acf] | "^I²"[G,Gce] "^I"[F,Gce] "^V"[G,GBd] "^V7"[G,FBd] | "^I"[CEGc]4 |]
